packages/astro-components-stencil/src/icons/party-mode.svg

<svg xmlns="http://www.w3.org/2000/svg" viewBox="0 0 24 24"><g xmlns="http://www.w3.org/2000/svg" id="party-mode" fill-rule="nonzero">
            <path d="M20 4h-3.17l-1.24-1.35A1.99 1.99 0 0014.12 2H9.88c-.56 0-1.1.24-1.48.65L7.17 4H4c-1.1 0-2 .9-2 2v12c0 1.1.9 2 2 2h16c1.1 0 2-.9 2-2V6c0-1.1-.9-2-2-2zm-8 3c1.63 0 3.06.79 3.98 2H12c-1.66 0-3 1.34-3 3 0 .35.07.69.18 1H7.1A5.002 5.002 0 0112 7zm0 10c-1.63 0-3.06-.79-3.98-2H12c1.66 0 3-1.34 3-3 0-.35-.07-.69-.18-1h2.08a5.002 5.002 0 01-4.9 6z"/>
        </g></svg>

<svg width="24" height="24" viewBox="0 0 24 24" fill="none" xmlns="http://www.w3.org/2000/svg">
<path fill-rule="evenodd" clip-rule="evenodd" d="M20 4H16.83L15.59 2.65C15.22 2.24 14.68 2 14.12 2H9.88C9.32 2 8.78 2.24 8.4 2.65L7.17 4H4C2.9 4 2 4.9 2 6V18C2 19.1 2.9 20 4 20H20C21.1 20 22 19.1 22 18V6C22 4.9 21.1 4 20 4ZM12 7C13.63 7 15.06 7.79 15.98 9H12C10.34 9 9 10.34 9 12C9 12.35 9.07 12.69 9.18 13H7.1C7.04 12.68 7 12.34 7 12C7 9.24 9.24 7 12 7ZM8.02 15C8.94 16.21 10.37 17 12 17C14.76 17 17 14.76 17 12C17 11.66 16.97 11.32 16.9 11H14.82C14.93 11.31 15 11.65 15 12C15 13.66 13.66 15 12 15H8.02Z" fill="black"/>
</svg>
